X: 16077
T: Green Fields Of Rossbeigh, The
R: reel
M: 4/4
K: Edorian
|:BE E2 BAFB|ABde fded|BE E2 BAFA|BFAF E2 FA|
B3d BAFB|ABde fded|BE E2 BAFA|BFAF E2 FA:|
|:(3B^cd ef gfge|dB B2 dB A2|(3B^cd ef gfge|dBAF E3f|
g3a gfed|f3g fedB|ABde f3e|dBAF E4:|

